X:1
T:When that the fyftye daye
T:Christofer Tye
T:Source : The Actes of the Apostles---Chapter II---1553. Editor : André Vierendeels (09/01/17).
T:When that the fyftye daye
T:©
T:©
T:©
C:Christofer Tye
Z:©
%%score [ 1 [ 2 3 ] 4 ]
L:1/8
Q:1/4=100
M:4/4
K:F
V:1 treble nm="Soprano" snm="S"
V:2 treble-8 nm="Tenor 1" snm="T 1"
V:3 treble-8 nm="Tenor 2" snm="T 2"
V:4 bass nm="Bass" snm="B"
V:1
 z2 F2 F3 F | F2 F2 G2 G2 | A2 A2 d2 c2 | c2 =B2 c4 | z8 | z4 z2 G2 | c3 B A2 A2 | B3 A G2 G2 | %8
w: When that the|fy- ftye daye was|come whit- son- day|full of grace||they|came to- ge- ther|all and some, in-|
 A4 G2 F2- | F2 E2 F4 | z2 F2 F3 F | F2 F2 B2 B2 | A4 A2 d2- | d2 c2 c2 =B2 | c4 z4 | z8 | %16
w: to a cer-|* tayne place:|and so- day-|niye a sound out|braste, from heaven|_ as it had|bene,||
 z2 G2 c3 B | AB c2 d3 d | G4 z2 A2 | B2 d2 c3 B | A8 |] %21
w: the com- myn-|ge of a mygh- tye|blaste, fyl-|lying the house with|dene.|
V:2
 z2 c2 c3 c | d2 d2 e2 e2 | f2 f2 f2 e2 | dc d2 e4- | e4 z2 c2 | f3 e d2 d2 | a3 g f4 | %7
w: When that the|fy- ftye daye was|come whit- son- day|full of grace, _|_ they|came to- ge- ther|all and some|
 z2 B2 _e3 d | c2 A2 d2 d2 | c3 B A4 | z2 d2 d3 d | d2 d2 f2 f2 | f2 f2 a2 g2 | f4 g4 | e8 | %15
w: in- to a|cer- tayne place, a|cer- tayne place:|and so- day-|niye a sound out|braste, from heaven as|it hat|bene,|
 z4 z2 d2 | g3 f ef g2 | a3 a d4 | z2 e2 f2 a2 | g2 f3 e/d/ e2 | f8 |] %21
w: the|com- myn- ge of a|mygh- tye blaste|fyl- lying the|house with _ _ de-|ne.|
V:3
 z2 A2 A3 A | A2 F2 c2 c2 | c2 c2 B2 G2 | G2 G2 G2 G2 | c3 B A2 A2 | d3 c B4 | z2 A2 d3 c | %7
w: When that the|fy- ftye daye was|come, whit- son- day|full of grace: they|came to- ge- ther|all and some|in- to a|
 B2 G2 c4 | z2 F2 B3 A | GF G2 F4 | z2 F2 B3 B | B2 B2 d2 d2 | c4 z2 G2 | B2 c2 d2 d2 | %14
w: cer- tayne place:,|a cer- *|* * tayne place:|and so- day-|niye a sound out|braste, from|heaven as it had|
 c2 G2 c3 B | AB c2 d3 d | G4 z2 E2 | F2 A2 G2 F2 | E2 G2 A2 c2 | B3 A GF G2 | F8 |] %21
w: bene: the com- myn-|ge of a mygh- tye|blaste, fyl-|lying the house with|de- * * ne|de- * * * *|ne.|
V:4
 z2 F,2 F,3 F, | D,2 D,2 C,2 C,2 | F,2 F,2 B,,2 C,2 | G,,2 G,,2 C,4 | z2 C,2 F,3 E, | %5
w: When that the|fy- ftye daye was|come, whit- son- day|full of grace:|they came to-|
 D,2 D,2 G,2 G,2 | F,4 z2 D,2 | G,3 F, _E,2 C,2 | F,2 F,2 B,,2 B,,2 | C,2 C,2 F,,4 | %10
w: ge- ther all and|some in-|to a cer- tayne|place, in- to a|cer- tayne place:|
 z2 B,,2 B,,3 B,, | B,,2 B,,2 B,,2 B,,2 | F,4 F,2 B,2- | B,2 A,2 G,2 G,2 | C,4 z2 C,2 | %15
w: and so- day-|niye a sound out|braste, from heaven|_ as it had|bene: the|
 F,3 _E, D,2 B,,2 | _E,3 D, C,4 | z2 A,,2 B,,2 D,2 | C,2 C,2 F,,2 F,2 | B,,2 B,,2 C,2 C,2 | F,,8 |] %21
w: com- mynge of a|mygh- tye blaste,|fyl- lying the|house with de- *|ne, de- ne, de-|ne.|

